!!!COM: Palestrina, Giovanni Perluigi da
!!!OPR: Illumina oculos meos
!!!OTL: Credo
**kern	**kern	**kern	**kern	**kern	**kern
*Ibass	*Ibarit	*Itenor	*Itenor	*Icalto	*Icant
!Bassus	!Baritone	!Tenor 2	!Tenor 1	!Altus	!Cantus
*clefF4	*clefF4	*clefGv2	*clefGv2	*clefG2	*clefG2
*k[]	*k[]	*k[]	*k[]	*k[]	*k[]
*E:phr	*E:phr	*E:phr	*E:phr	*E:phr	*E:phr
*M4/2	*M4/2	*M4/2	*M4/2	*M4/2	*M4/2
=1	=1	=1	=1	=1	=1
1r	0r	0E	1r	1r	0r
[1E	.	.	[1B	[1e	.
=2	=2	=2	=2	=2	=2
1E]	0r	1G	1B]	1e]	0r
1AA	.	1A	1c	1e	.
=3	=3	=3	=3	=3	=3
0E	0r	1.G	1B	2.e	0r
.	.	.	.	4d	.
.	.	.	2c	4e	.
.	.	.	.	4f	.
.	.	2G	[2B	2g	.
=4	=4	=4	=4	=4	=4
2D	0r	1A	4B]	2f	0r
.	.	.	4A	.	.
2C	.	.	1A	2e	.
1BB	.	1D	.	1d	.
.	.	.	2G#	.	.
=5	=5	=5	=5	=5	=5
[0AA	1r	1E	1A	1c	1r
.	1A	1r	1c	1e	1a
=6	=6	=6	=6	=6	=6
1AA]	1A	0r	1c	2e	1.a
.	.	.	.	2e	.
1r	1D	.	1d	1f	.
.	.	.	.	.	2b
=7	=7	=7	=7	=7	=7
0r	1A	0r	1c	1e	1cc
.	2A	.	2A	2c	2cc
.	2G	.	2B	[2e	2b
=8	=8	=8	=8	=8	=8
0r	1F	1r	2c	2e]	1a
.	.	.	2A	2d	.
.	[1E	2r	1B	[1e	2g
.	.	[2B	.	.	[2g
=9	=9	=9	=9	=9	=9
2r	0E]	2B]	2r	0e]	2g]
1E	.	2G	1B	.	2e
.	.	2B	.	.	1g
2C	.	2c	2e	.	.
=10	=10	=10	=10	=10	=10
2D	0r	2A	2d	0r	2f
2E	.	1c	2G	.	2.e
1F	.	.	1A	.	.
.	.	.	.	.	8d
.	.	.	.	.	8c
.	.	4B	.	.	2d
.	.	4A	.	.	.
=11	=11	=11	=11	=11	=11
2.E	0r	1G	4B	0r	4e
.	.	.	4G	.	4f
.	.	.	1c	.	4g
8D	.	.	.	.	4e
8C	.	.	.	.	.
1D	.	1F	.	.	2f
.	.	.	2B	.	2f
=12	=12	=12	=12	=12	=12
[0C	1r	0G	2c	2r	1e
.	.	.	1e	1g	.
.	2r	.	.	.	2r
.	[2E	.	2c	2e	[2g
=13	=13	=13	=13	=13	=13
1C]	2E]	0r	1e	1g	2g]
.	2C	.	.	.	2e
1r	2D	.	2d	2f	2f
.	2E	.	[2c	[2e	2g
=14	=14	=14	=14	=14	=14
1r	2F	1r	2c]	2e]	2a
.	2F	.	2A	2d	2a
2r	1E	2r	2B	2e	4g
.	.	.	.	.	4f
[2C	.	[2G	[2c	[2e	4e
.	.	.	.	.	4d
=15	=15	=15	=15	=15	=15
2C]	2r	2G]	2c]	2e]	2c
2C	1E	2G	2c	2e	1cc
2AA	.	[1A	2c	2e	.
2AA	2E	.	[2A	2c	2cc
=16	=16	=16	=16	=16	=16
1.D	2F	2A]	4A]	1.d	2a
.	.	.	4G	.	.
.	2D	2A	4F	.	2a
.	.	.	4E	.	.
.	2F#	2A	2D	.	2.dd
2D	2F#	2A	[2d	2d	.
.	.	.	.	.	4dd
=17	=17	=17	=17	=17	=17
1GG	1G	2B	4d]	1d	1b
.	.	.	4d	.	.
.	.	1G	2B	.	.
[1C	1E	.	[1c	[1e	2r
.	.	2G	.	.	[2g
=18	=18	=18	=18	=18	=18
1C]	2E	1.c	2c]	1e]	2g]
.	4D	.	4B	.	2g
.	4C	.	4A	.	.
1C	2E	.	2G	1g	[1cc
.	2E	2B	2G	.	.
=19	=19	=19	=19	=19	=19
0FF	1F	2A	2A	0f	2cc]
.	.	2G	2B	.	2b
.	1C	1F	1c	.	1a
=20	=20	=20	=20	=20	=20
1C	2r	1G	2c	1e	2g
.	2C	.	2G	.	2cc
2r	2E	2r	2G	2r	2b
2C	2E	2c	[2G	2e	2g
=21	=21	=21	=21	=21	=21
2GG	1G	2B	2G]	2d	1b
2GG	.	2G	2.d	2d	.
1D	1F#	1A	.	1d	2a
.	.	.	8c	.	.
.	.	.	8B	.	.
.	.	.	2A	.	[2dd
=22	=22	=22	=22	=22	=22
2GG	2.G	2G	1B	1d	4dd]
.	.	.	.	.	4cc
1G	.	1B	.	.	4b
.	4F	.	.	.	4a
.	2E	.	1r	2e	2g
2F	2D	2d	.	2f	[2a
=23	=23	=23	=23	=23	=23
1E	1G	4c	0r	2g	4a]
.	.	4B	.	.	4g
.	.	4A	.	2c	1g
.	.	4G	.	.	.
1D	2r	2A	.	1d	.
.	[2D	2A	.	.	2f#
=24	=24	=24	=24	=24	=24
0GG	2D]	1G	2r	2r	1g
.	2D	.	1B	1d	.
.	2.G	1r	.	.	2r
.	.	.	2B	2d	[2g
.	4F	.	.	.	.
=25	=25	=25	=25	=25	=25
0r	1E	0r	2B	2e	2g]
.	.	.	2G	2e	2g
.	1D	.	1d	1f	2a
.	.	.	.	.	2a
=26	=26	=26	=26	=26	=26
1.GG	0r	2r	1G	0g	4b
.	.	.	.	.	4a
.	.	1D	.	.	4g
.	.	.	.	.	4a
.	.	.	2r	.	4b
.	.	.	.	.	4cc
2GG	.	2D	[2G	.	4dd
.	.	.	.	.	4b
=27	=27	=27	=27	=27	=27
2.C	0r	2E	2G]	2.e	0cc
.	.	2E	2G	.	.
4BB	.	.	.	4d	.
1AA	.	1F#	2A	4c	.
.	.	.	.	4B	.
.	.	.	2A	2A	.
=28	=28	=28	=28	=28	=28
1GG	1r	1G	1B	1d	1b
1r	1E	2r	1B	[1e	2r
.	.	[2B	.	.	[2g
=29	=29	=29	=29	=29	=29
0r	1E	2B]	0r	2e]	2g]
.	.	2B	.	2e	2g
.	1A	1c	.	2f	4a
.	.	.	.	.	4g
.	.	.	.	2e	4a
.	.	.	.	.	4b
=30	=30	=30	=30	=30	=30
0r	2A	2A	0r	1.e	2cc
.	2G#	2B	.	.	2b
.	1A	2.c	.	.	2a
.	.	.	.	4A	[2cc
.	.	4B	.	4B	.
=31	=31	=31	=31	=31	=31
0r	1F	4A	0r	2c	4cc]
.	.	4G	.	.	4b
.	.	2A	.	2d	1a
.	1E	2B	.	2.e	.
.	.	2B	.	.	2g#
.	.	.	.	4d	.
=32	=32	=32	=32	=32	=32
2r	2r	1A	2r	2c	0a
2D	2F	.	2A	2d	.
2D	2F	1r	2A	1r	.
2C#	2E	.	2A	.	.
=33	=33	=33	=33	=33	=33
1D	1F	2r	2B-	2r	2r
.	.	2d	2A	2d	2a
1AA	1E	2d	1A	2e	2a
.	.	2c	.	2e	2a
=34	=34	=34	=34	=34	=34
0r	0r	1d	2r	1f	2b-
.	.	.	2d	.	2a
.	.	[1A	2d	1e	1a
.	.	.	2c#	.	.
=35	=35	=35	=35	=35	=35
1D	1F	1A]	2d	0r	0r
.	.	.	2d	.	.
2D	2F	2r	1A	.	.
2C#	2E	2A	.	.	.
=36	=36	=36	=36	=36	=36
1.D	1.F	2A	1r	1r	0r
.	.	2A	.	.	.
.	.	2.B-	2r	2r	.
2D	2F	.	[2d	2d	.
.	.	4A	.	.	.
=37	=37	=37	=37	=37	=37
1AA	1E	1A	2d]	1e	2r
.	.	.	2c	.	1a
1r	2D	1r	1d	1f	.
.	2D	.	.	.	2b
=38	=38	=38	=38	=38	=38
2r	1A	2r	2.c	1e	1cc
1A	.	2A	.	.	.
.	.	.	4d	.	.
.	1E	1B	1e	1r	1b
2G#	.	.	.	.	.
=39	=39	=39	=39	=39	=39
1A	0r	1c	2r	0e	1a
.	.	.	2A	.	.
1E	.	2B	2A	.	1b
.	.	2e	2G#	.	.
=40	=40	=40	=40	=40	=40
1AA	2r	4e	1A	2.c	1.cc
.	.	4d	.	.	.
.	2A	4c	.	.	.
.	.	4B	.	4d	.
2AA	2A	2A	2E	[1e	.
2E	2G#	2B	4r	.	2b
.	.	.	4E	.	.
=41	=41	=41	=41	=41	=41
0AA	1A	0c	2E	2e]	0a
.	.	.	2E	2e	.
.	[1E	.	1A	1e	.
=42	=42	=42	=42	=42	=42
1EE	0E]	1B	1G#	0e	0b
2r	.	2r	2r	.	.
[2E	.	[2G	[2B	.	.
=43	=43	=43	=43	=43	=43
2E]	0r	2G]	2B]	0r	0r
2E	.	2G	2c	.	.
1E	.	1G	2B	.	.
.	.	.	[2c	.	.
=44	=44	=44	=44	=44	=44
2.F	0r	2.A	4c]	0r	0r
.	.	.	4A	.	.
.	.	.	2d	.	.
8E	.	8G	.	.	.
8D	.	8F	.	.	.
2E	.	2G	2c	.	.
[2D	.	[2F	[2B	.	.
=45	=45	=45	=45	=45	=45
4D]	0r	4F]	4B]	0r	0r
4C	.	4E	4A	.	.
4BB	.	4D	1A	.	.
4AA	.	4C	.	.	.
1BB	.	1D	.	.	.
.	.	.	2G#	.	.
=46	=46	=46	=46	=46	=46
0AA	2r	1E	1A	2r	2r
.	1A	.	.	1e	1a
.	.	1r	2.c	.	.
.	2A	.	.	2e	2a
.	.	.	4c	.	.
=47	=47	=47	=47	=47	=47
0r	2F	0r	2c	2f	2a
.	2D	.	2d	2f	2a
.	1A	.	2c	1e	1cc
.	.	.	2A	.	.
=48	=48	=48	=48	=48	=48
0r	2G	0r	2B	2e	2b
.	2.F	.	2c	2.A	2.a
.	.	.	[1A	.	.
.	4E	.	.	4B	4g
.	4D	.	.	[2c	4f
.	4C	.	.	.	4e
=49	=49	=49	=49	=49	=49
1r	1D	1r	2A]	2c]	1f
.	.	.	4G	2B	.
.	.	.	4F	.	.
2r	1C	2r	1G	2c	2e
[2C	.	[2c	.	[2e	[2g
=50	=50	=50	=50	=50	=50
2C]	1r	2c]	2r	2e]	2g]
2C	.	2c	1G	2e	2g
2C	2r	2e	.	2g	2cc
2C	[2G	2e	2G	2g	2cc
=51	=51	=51	=51	=51	=51
0GG	2G]	2.d	2.B	1g	1.b
.	2G	.	.	.	.
.	.	4c	4c	.	.
.	2G	1B	1d	2r	.
.	2G	.	.	[2g	4a
.	.	.	.	.	4g
=52	=52	=52	=52	=52	=52
1r	0D	2r	2.d	2g]	0a
.	.	1d	.	4f	.
.	.	.	8c	4e	.
.	.	.	8B	.	.
1D	.	.	2A	1f	.
.	.	[2A	2d	.	.
=53	=53	=53	=53	=53	=53
2.AA	1A	4A]	1c	0e	1.cc
.	.	4B	.	.	.
.	.	1c	.	.	.
4BB	.	.	.	.	.
1C	1E	.	2.G	.	.
.	.	[2G	.	.	2cc
.	.	.	4A	.	.
=54	=54	=54	=54	=54	=54
1GG	1G	4G]	1B	1d	1b
.	.	4A	.	.	.
.	.	2B	.	.	.
1r	2r	2.E	1r	2r	1g
.	[2c	.	.	[2e	.
.	.	4F	.	.	.
=55	=55	=55	=55	=55	=55
0r	2c]	1G	0r	2e]	1g
.	2B	.	.	2d	.
.	2c	1r	.	2e	2g
.	2c	.	.	2e	2g
=56	=56	=56	=56	=56	=56
1r	2A	1r	1r	2f	2a
.	2G	.	.	2g	2b
2r	1c	2r	2r	2e	1g
2C	.	2G	2c	2e	.
=57	=57	=57	=57	=57	=57
2C	0r	2G	2c	2e	0r
2C	.	2G	2c	2e	.
2BB	.	1G	2d	2d	.
[2C	.	.	[2e	[2g	.
=58	=58	=58	=58	=58	=58
4C]	0r	1G	4e]	4g]	0r
4D	.	.	4d	4f	.
2E	.	.	1c	1e	.
2F	.	2A	.	.	.
2G	.	2B	2B	2d	.
=59	=59	=59	=59	=59	=59
[0C	0r	0G	[0c	1e	2r
.	.	.	.	.	2e
.	.	.	.	2r	1g
.	.	.	.	2e	.
=60	=60	=60	=60	=60	=60
0C]	2r	0r	0c]	1g	2e
.	2E	.	.	.	2.g
.	1G	.	.	2e	.
.	.	.	.	.	4f
.	.	.	.	[2g	[2e
=61	=61	=61	=61	=61	=61
0r	2.E	0r	0r	4g]	4e]
.	.	.	.	4f	4d
.	.	.	.	2e	2c
.	4F	.	.	.	.
.	2G	.	.	2d	4B
.	.	.	.	.	4A
.	2A	.	.	2c	[2a
=62	=62	=62	=62	=62	=62
1r	0E	2r	0r	1B	2a]
.	.	2B	.	.	2g#
1AA	.	1c	.	1A	2a
.	.	.	.	.	[2cc
=63	=63	=63	=63	=63	=63
1C	[0E	2G	2r	0e	4cc]
.	.	.	.	.	8b
.	.	.	.	.	8a
.	.	2.c	2G	.	2g
2AA	.	.	[1c	.	2a
.	.	4B	.	.	.
[2C	.	2A	.	.	[2e
=64	=64	=64	=64	=64	=64
4C]	0E]	2G	1c]	[0e	2e]
4BB	.	.	.	.	.
1AA	.	4A	.	.	1cc
.	.	4B	.	.	.
.	.	4c	2A	.	.
.	.	4d	.	.	.
2GG#	.	[2e	2B	.	2b
=65	=65	=65	=65	=65	=65
0AA	[0E	4e]	4c	0e]	0a
.	.	4d	4B	.	.
.	.	4c	4A	.	.
.	.	4B	4G#	.	.
.	.	1c	1A	.	.
=66	=66	=66	=66	=66	=66
1EE	1E]	1B	1G#	1e	1b
1r	1r	1r	1r	1r	1r
=67	=67	=67	=67	=67	=67
0r	0r	0r	0A	0c	0e
=68	=68	=68	=68	=68	=68
0r	0r	0r	1F	1.f	1.a
.	.	.	1c	.	.
.	.	.	.	2e	2g
=69	=69	=69	=69	=69	=69
0r	0r	0r	2F	1f	1a
.	.	.	2D	.	.
.	.	.	4D	1d	1f
.	.	.	4E	.	.
.	.	.	4F	.	.
.	.	.	4G	.	.
=70	=70	=70	=70	=70	=70
0AA	0E	1r	0A	0c#	0e
.	.	1A	.	.	.
=71	=71	=71	=71	=71	=71
1.D	1.F	1.A	0r	0r	1r
.	.	.	.	.	[1a
2C#	2E	2A	.	.	.
=72	=72	=72	=72	=72	=72
1D	1F	1A	0r	0r	1a]
1BB	1D	1G#	.	.	[1dd
=73	=73	=73	=73	=73	=73
0AA	1E	0A	2r	[0e	2dd]
.	.	.	1E	.	4cc
.	.	.	.	.	4b
.	1r	.	.	.	2cc
.	.	.	[2A	.	2cc
=74	=74	=74	=74	=74	=74
0r	0E	0B	2A]	0e]	0b
.	.	.	4G#	.	.
.	.	.	4F#	.	.
.	.	.	2G#	.	.
.	.	.	2G#	.	.
=75	=75	=75	=75	=75	=75
0r	1.A	1c	4A	1e	2.a
.	.	.	4B	.	.
.	.	.	4c	.	.
.	.	.	4d	.	4b
.	.	2A	1e	2c	2cc
.	2G#	2B	.	2e	2b
=76	=76	=76	=76	=76	=76
0r	1A	2c	1.c	4f	0a
.	.	.	.	4e	.
.	.	2A	.	1e	.
.	1F	1A	.	.	.
.	.	.	2A	2d	.
=77	=77	=77	=77	=77	=77
1r	0E	1r	0B	0e	0g#
[1E	.	[1B	.	.	.
=78	=78	=78	=78	=78	=78
1E]	0r	1B]	0r	2r	2r
.	.	.	.	1e	1g
1E	.	2B	.	.	.
.	.	[2c	.	2e	2g
=79	=79	=79	=79	=79	=79
1.F	0r	4c]	0r	1c	1.a
.	.	4B	.	.	.
.	.	4A	.	.	.
.	.	4G	.	.	.
.	.	2F	.	2.c	.
2E	.	2C	.	.	2g
.	.	.	.	4B	.
=80	=80	=80	=80	=80	=80
1F	0r	1c	0r	2A	1a
.	.	.	.	1c	.
1D	.	1d	.	.	1f
.	.	.	.	2B	.
=81	=81	=81	=81	=81	=81
0C	1r	0G	1r	1c	1e
.	1E	.	1c	1e	1g
=82	=82	=82	=82	=82	=82
0r	1.A	0r	1c	1e	1.cc
.	.	.	2A	1e	.
.	2G#	.	[2e	.	2b
=83	=83	=83	=83	=83	=83
0r	1A	0r	4e]	2c	1cc
.	.	.	4d	.	.
.	.	.	1c	2.e	.
.	1F	.	.	.	1a
.	.	.	.	8d	.
.	.	.	.	8c	.
.	.	.	2A	2d	.
=84	=84	=84	=84	=84	=84
0C	[0E	0G	2c	[0e	2.g
.	.	.	4B	.	.
.	.	.	4A	.	4f
.	.	.	2G	.	4e
.	.	.	.	.	4d
.	.	.	2E	.	[2c
=85	=85	=85	=85	=85	=85
1.AA	1E_	1.c	1.A	1e_	2c]
.	.	.	.	.	2cc
.	1E_	.	.	1e_	2a
2E	.	2B	2G#	.	2b
=86	=86	=86	=86	=86	=86
1AA	0E]	1c	1A	0e]	1.a
1AA	.	1A	1c	.	.
.	.	.	.	.	2a
=87	=87	=87	=87	=87	=87
0E	[0E	[0G#	[0B	[0e	[0b
=88	=88	=88	=88	=88	=88
0EE	0E]	0G#]	0B]	0e]	0b]
*	*	*	*	*-	*-
!! Crucifixus
*Ibass	*Itenor	*Icalto	*Icalto
!Bassus	!Tenor	!Altus 2	!Altus 1
*clefF4	*clefGv2	*clefG2	*clefG2
*k[]	*k[]	*k[]	*k[]
*E:phr	*E:phr	*E:phr	*E:phr
*M4/2	*M4/2	*M4/2	*M4/2
=89	=89	=89	=89
0r	0r	0r	1.e
.	.	.	2e
=90	=90	=90	=90
1r	0r	0r	1f
[1E	.	.	1e
=91	=91	=91	=91
2E]	0r	0r	2.g
2E	.	.	.
.	.	.	4g
1F	.	.	1c
=92	=92	=92	=92
1E	1.B	0r	1e
2.G	.	.	1d
.	2B	.	.
4G	.	.	.
=93	=93	=93	=93
1C	1c	1.e	1g
1E	1B	.	2r
.	.	2e	2G
=94	=94	=94	=94
1D	2.d	1f	4A
.	.	.	4G
.	.	.	4A
.	4d	.	4B
1C	1G	1e	4c
.	.	.	4d
.	.	.	4e
.	.	.	4c
=95	=95	=95	=95
1GG	1B	2.g	2.d
.	.	4g	8c
.	.	.	8d
1r	1A	1c	2e
.	.	.	4d
.	.	.	4c
=96	=96	=96	=96
1r	1.G	1e	2B
.	.	.	2.c
2r	.	2d	.
.	.	.	4B
2GG	2d	[2g	2B
=97	=97	=97	=97
2C	2e	2g]	1A
2D	2d	2f#	.
2E	2B	1g	1G
2C	2c	.	.
=98	=98	=98	=98
0F	0A	0r	2r
.	.	.	2A
.	.	.	2c
.	.	.	2d
=99	=99	=99	=99
1E	1B	2r	1.e
.	.	2G	.
1r	1r	2c	.
.	.	2d	2B
=100	=100	=100	=100
1r	0r	2e	4c
.	.	.	4d
.	.	2c	4e
.	.	.	4c
2r	.	2f	2d
2C	.	2e	[2c
=101	=101	=101	=101
2F	1r	1d	2c]
2G	.	.	2B
[1A	2r	2r	2c
.	2A	2c	[2e
=102	=102	=102	=102
2A]	2c	2A	2e]
2G	2d	2B	2.g
4C	2.e	2c	.
4D	.	.	4f
4E	.	[2g	2e
4F	8d	.	.
.	8c	.	.
=103	=103	=103	=103
2G	2B	4g]	2d
.	.	4f	.
2A	2c	1e	1c
1F	1A	.	.
.	.	2d	4B
.	.	.	4A
=104	=104	=104	=104
1E	1G#	1e	1B
1AA	[1A	[1c	[1e
=105	=105	=105	=105
0E	1A]	1c]	1e]
.	1G	1B	1e
=106	=106	=106	=106
1D	1A	1d	1f#
1GG	1B	1d	1g
=107	=107	=107	=107
1C	2.c	1G	0e
.	4B	.	.
1C	2A	2.c	.
.	2G	.	.
.	.	4B	.
=108	=108	=108	=108
0D	2F#	2A	0d
.	1G	2G	.
.	.	1A	.
.	2F#	.	.
!! Et resurrexit
*Ibass	*Itenor	*Icalto	*Icalto
!Bassus	!Tenor	!Altus 2	!Altus 1
*clefF4	*clefGv2	*clefG2	*clefG2
*k[]	*k[]	*k[]	*k[]
*E:phr	*E:phr	*E:phr	*E:phr
*M3/2	*M3/2	*M3/2	*M3/2
=109	=109	=109	=109
2r	2G	2G	1.B
2E	2G	2r	.
[2E	[2G	2B	.
=110	=110	=110	=110
4E]	4G]	2.B	1r
4E	4G	.	.
2E	2G	.	.
.	.	4B	.
2D	2F	2B	2r
=111	=111	=111	=111
2.F	2.A	2A	1r
.	.	2.c	.
4E	4G	.	.
[2E	[2G	.	2r
.	.	4B	.
=112	=112	=112	=112
2E]	2G]	2B	2r
1AA	1c	1A	2r
.	.	.	2e
=113	=113	=113	=113
1E	1B	1G	2.e
.	.	.	4e
[2G	[2B	2r	2e
=114	=114	=114	=114
4G]	4B]	1r	2d
4F	4A	.	.
2F	2A	.	2.f
2A	2c	2r	.
.	.	.	4e
=115	=115	=115	=115
2G	2B	1r	1e
1F	1A	.	.
.	.	2r	2d
=116	=116	=116	=116
1.E	1.B	2r	1e
.	.	2e	.
.	.	[2g	2r
=117	=117	=117	=117
2r	2r	4g]	2e
.	.	4f	.
2E	2B	2e	2.g
[2G	[2B	2d	.
.	.	.	4f
=118	=118	=118	=118
2G]	2B]	2.g	2e
1G	1B	.	2d
.	.	4f	.
.	.	4e	4g
.	.	4d	4f
=119	=119	=119	=119
2.A	2.c	4c	4e
.	.	4d	4d
.	.	2e	2c
4G	4B	.	.
2F	2A	2d	2d
=120	=120	=120	=120
2E	2G	1c	2e
1D	1F	.	1f
.	.	2B	.
!! Et ascendit
*Ibass	*Itenor	*Icalto	*Icalto
!Bassus	!Tenor	!Altus 2	!Altus 1
*clefF4	*clefGv2	*clefG2	*clefG2
*k[]	*k[]	*k[]	*k[]
*E:phr	*E:phr	*E:phr	*E:phr
*M4/2	*M4/2	*M4/2	*M4/2
=121	=121	=121	=121
0C	0G	2c	2e
.	.	1e	1c
.	.	2e	2c
=122	=122	=122	=122
1r	1r	2f	2d
.	.	2g	2e
2r	2r	2e	2c
[2E	[2G	[2g	[2e
=123	=123	=123	=123
2E]	2G]	4g]	4e]
.	.	4f	4d
2E	2G	1e	1c
2F	2A	.	.
2G	2B	2d	2B
=124	=124	=124	=124
2C	2G	0e	1c
2.c	2.A	.	.
.	.	.	1r
4B	4G	.	.
[2A	2c	.	.
=125	=125	=125	=125
2A]	1B	1r	1r
2G#	.	.	.
[1A	1A	2r	2r
.	.	2A	2e
=126	=126	=126	=126
1A]	0r	2.c	2.e
.	.	4B	4d
1r	.	2c	2e
.	.	2d	2f
=127	=127	=127	=127
1r	0r	2e	4g
.	.	.	4f
.	.	4c	4e
.	.	4d	4d
2r	.	4e	4c
.	.	4f	4d
2C	.	4g	2e
.	.	4e	.
=128	=128	=128	=128
2.F	0r	4f	4d
.	.	4e	4c
.	.	4d	1c
4E	.	4c	.
2F	.	1d	.
2G	.	.	2B
=129	=129	=129	=129
1A	2r	1c	2c
.	2A	.	2A
2r	2.A	1r	2.c
[2F	.	.	.
.	4G	.	4B
=130	=130	=130	=130
4F]	2A	1r	2c
4E	.	.	.
2D	2B	.	2d
1C	2c	2r	[1e
.	2E	2G	.
=131	=131	=131	=131
0r	2.A	2.c	1e]
.	4G	4B	.
.	2A	2c	2r
.	2F	2d	2A
=132	=132	=132	=132
0r	2G	2e	2B
.	2.A	2.f	2.c
.	4G	4e	4B
.	2E	[2e	2G
=133	=133	=133	=133
2r	2F	2e]	2A
2GG	2G	2d	2B
2.C	2.E	2e	1c
.	.	[2g	.
4BB	8F	.	.
.	8G	.	.
=134	=134	=134	=134
2C	1A	4g]	1r
.	.	8f#	.
.	.	8e	.
2D	.	2f#	.
1E	2G	1g	2r
.	2C	.	2G
=135	=135	=135	=135
2.C	2.G	2r	2.c
.	.	2e	.
4D	4F	.	4B
2E	2G	2e	2c
2F	2A	2d	2d
=136	=136	=136	=136
2E	2G	2c	2e
1D	2.A	2d	1f
.	.	[1A	.
.	4G	.	.
2C	2E	.	[2e
=137	=137	=137	=137
0D	0F	0A]	2e]
.	.	.	4d
.	.	.	4c
.	.	.	1d
=138	=138	=138	=138
0AA	1E	0c	[0e
.	1A	.	.
=139	=139	=139	=139
0E	0G#	0B	0e]
*	*	*	*-
!! Et iterum
*Ibarit	*Icant	*Icant
!Baritone	!Cantus 2	!Cantus 1
*clefF4	*clefG2	*clefG2
*k[]	*k[]	*k[]
*E:phr	*E:phr	*E:phr
*M4/2	*M4/2	*M4/2
=140	=140	=140
0r	1r	1e
.	1e	2e
.	.	2e
=141	=141	=141
0r	2e	1g
.	2e	.
.	1g	2.e
.	.	4f
=142	=142	=142
0r	2.e	2g
.	.	2.e
.	4f	.
.	2g	.
.	.	4f
.	[2e	2g
=143	=143	=143
0r	4e]	2.c
.	4f	.
.	2g	.
.	.	4d
.	2.c	4e
.	.	4f
.	.	[2g
.	4d	.
=144	=144	=144
1r	4e	4g]
.	4f	4a
.	2.g	2b
1E	.	2e
.	4a	.
.	2b	[2g
=145	=145	=145
2E	2g	4g]
.	.	4f
2E	1cc	2e
1G	.	1d
.	4b	.
.	4a	.
=146	=146	=146
2.E	1b	2r
.	.	2.g
4F	.	.
2G	2r	.
.	.	4a
[2E	[2g	2b
=147	=147	=147
4E]	4g]	2.e
4F	4a	.
2G	2b	.
.	.	4f
2.C	2.e	2g
.	.	[2e
4D	4f	.
=148	=148	=148
1.E	2g	4e]
.	.	4f
.	2.e	4g
.	.	4a
.	.	2b
.	4f	.
2C	4g	2cc
.	4a	.
=149	=149	=149
2G	2b	2b
2A	2cc	1a
1E	1b	.
.	.	2g#
=150	=150	=150
2F	0a	1a
2.D	.	.
.	.	2r
4E	.	.
4F	.	2a
4G	.	.
=151	=151	=151
0A	2r	2cc
.	2a	2cc
.	2cc	1a
.	2cc	.
=152	=152	=152
0r	1a	2.cc
.	.	4b
.	2.cc	4a
.	.	4g
.	.	[2f
.	4b	.
=153	=153	=153
1r	2a	2f]
.	2g	2e
2r	1f	1a
2A	.	.
=154	=154	=154
2c	0e	1g
2c	.	.
1A	.	2.cc
.	.	4b
=155	=155	=155
2.c	2r	2a
.	1cc	2g
4B	.	.
2A	.	4f
.	.	4e
2G	2b	[2e
=156	=156	=156
1F	1a	2e]
.	.	2d
1E	2g	[1e
.	[2g	.
=157	=157	=157
2r	4g]	1e]
.	4f	.
2.c	4e	.
.	4d	.
.	1e	2r
4B	.	.
4A	.	[2cc
4G	.	.
=158	=158	=158
4A	2c	4cc]
4G	.	4b
4F	2.cc	4a
4E	.	4g
[1F	.	4a
.	4b	4g
.	4a	4f
.	4g	4e
=159	=159	=159
1F]	1a	1f
1C	1g	1e
=160	=160	=160
2.D	2.f	1.a
4E	4g	.
2F	2a	.
2G	2b	4g
.	.	4f
=161	=161	=161
2A	2cc	2e
2B	2.dd	2d
2c	.	1e
.	4cc	.
2C	[2cc	.
=162	=162	=162
1G	2cc]	1d
.	2b	.
[1C	1cc	1c
=163	=163	=163
0C]	2r	2r
.	1g	1e
.	2e	2c
=164	=164	=164
1r	1a	1f
2r	2.g	2e
[2E	.	[2g
.	4a	.
=165	=165	=165
2E]	2b	2g]
2C	1cc	2e
1F	.	1a
.	4b	.
.	4a	.
=166	=166	=166
1E	0b	1g
2r	.	2r
2G	.	2b
=167	=167	=167
2G	2r	2b
2E	2e	2g
1A	2e	1cc
.	2c	.
=168	=168	=168
[0G	1.g	2b
.	.	4g
.	.	4a
.	.	4b
.	.	4cc
.	2f	[2dd
=169	=169	=169
0G]	2e	2dd]
.	4d	1cc
.	4c	.
.	1d	.
.	.	2b
=170	=170	=170
1C	2c	0cc
.	1e	.
2r	.	.
[2A	2c	.
=171	=171	=171
2A]	1f	2r
2F	.	1a
1c	1e	.
.	.	2g
=172	=172	=172
1A	2r	1cc
.	2a	.
1E	2a	1b
.	2g	.
=173	=173	=173
1A	2.cc	2r
.	.	2a
.	8b	.
.	8a	.
1E	1b	2a
.	.	2g
=174	=174	=174
2r	2.a	2.cc
2A	.	.
.	8g	8b
.	8f	8a
2A	1e	1b
2G	.	.
=175	=175	=175
2.c	2r	2e
.	2e	2g
8B	.	.
8A	.	.
2G	2e	2g
[2A	2c	2e
=176	=176	=176
4A]	4f	0a
4G	4e	.
4F	1e	.
4E	.	.
1F	.	.
.	2d	.
=177	=177	=177
0E	0e	0g#
*-	*-	*-
!! Et in Spiritum
**kern	**kern	**kern	**kern	**kern	**kern
*Ibass	*Ibarit	*Itenor	*Itenor	*Icalto	*Icant
!Bassus	!Baritone	!Tenor 2	!Tenor 1	!Altus	!Cantus
*clefF4	*clefF4	*clefGv2	*clefGv2	*clefG2	*clefG2
*k[]	*k[]	*k[]	*k[]	*k[]	*k[]
*E:phr	*E:phr	*E:phr	*E:phr	*E:phr	*E:phr
*M4/2	*M4/2	*M4/2	*M4/2	*M4/2	*M4/2
=178	=178	=178	=178	=178	=178
1.E	0r	1.B	1.G#	1.e	0r
2E	.	2B	2G#	2e	.
=179	=179	=179	=179	=179	=179
2AA	0r	2c	2A	2e	0r
2AA	.	2c	2A	2e	.
1E	.	1B	1G	1e	.
=180	=180	=180	=180	=180	=180
1D	0r	1d	1.A	1f	0r
2AA	.	2c	.	2e	.
4D	.	[2A	2F	[2d	.
4E	.	.	.	.	.
=181	=181	=181	=181	=181	=181
4F	0r	2A]	2D	4d]	0r
4G	.	.	.	4c	.
1A	.	2A	2F	4c	.
.	.	.	.	8B	.
.	.	.	.	8A	.
.	.	[1e	1E	2B	.
2G#	.	.	.	2B	.
=182	=182	=182	=182	=182	=182
1A	2r	1e]	2r	2A	2r
.	1A	.	1c	1e	1a
1r	.	1r	.	.	.
.	2A	.	2c	2e	2a
=183	=183	=183	=183	=183	=183
0r	2D	0r	2d	2f	2a
.	2D	.	2d	2f	2a
.	1A	.	2c	[1e	1cc
.	.	.	4B	.	.
.	.	.	4A	.	.
=184	=184	=184	=184	=184	=184
0r	2G	0r	2B	2e]	2b
.	2.F	.	2c	2.A	2.a
.	.	.	[1A	.	.
.	4E	.	.	4B	4g
.	4D	.	.	[2c	4f
.	4C	.	.	.	4e
=185	=185	=185	=185	=185	=185
1r	1D	1r	2A]	2c]	1f
.	.	.	4G	2B	.
.	.	.	4F	.	.
2r	1C	2r	2G	2c	1e
[2C	.	[2c	[2G	[2e	.
=186	=186	=186	=186	=186	=186
2C]	0r	2c]	2G]	2e]	0r
2C	.	2c	2G	2e	.
1GG	.	1B	1G	1d	.
=187	=187	=187	=187	=187	=187
2C	0r	2c	2G	2e	1r
2E	.	2B	2G	2e	.
2D	.	2d	2A	2f	2r
2GG	.	2d	2B	2g	[2g
=188	=188	=188	=188	=188	=188
1C	0r	1c	0G	1e	2g]
.	.	.	.	.	2g
2r	.	2B	.	2d	1g
[2C	.	[2e	.	4c	.
.	.	.	.	4d	.
=189	=189	=189	=189	=189	=189
4C]	0r	4e]	0r	4e	2g
4D	.	4d	.	4f	.
2E	.	1c	.	2e	2g
2F	.	.	.	1d	2a
2G	.	2B	.	.	2b
=190	=190	=190	=190	=190	=190
1C	2r	1c	2r	0e	2g
.	2.C	.	2.e	.	2.g
1r	.	1r	.	.	.
.	4D	.	4d	.	4f
.	2E	.	[2c	.	2e
=191	=191	=191	=191	=191	=191
1r	2F	1r	2c]	1r	1d
.	2G	.	2B	.	.
2r	1C	2r	2c	2r	2e
[2C	.	[2c	[2G	[2e	[2g
=192	=192	=192	=192	=192	=192
2C]	0r	2c]	2G]	2e]	2g]
2C	.	2c	2G	2e	2g
1C	.	1e	1G	1g	1cc
=193	=193	=193	=193	=193	=193
0GG	2r	2d	1G	2g	2b
.	2G	2B	.	1d	2g
.	2G	2B	2r	.	2b
.	2G	2G	2d	[2g	2b
=194	=194	=194	=194	=194	=194
0r	1D	1A	2d	2g]	1a
.	.	.	2d	2f#	.
.	2r	1B	1G	2g	2r
.	[2E	.	.	[2e	[2g
=195	=195	=195	=195	=195	=195
0r	2E]	2G	0r	2e]	2g]
.	2C	2.A	.	2e	2e
.	2D	.	.	2d	2f
.	.	4B	.	.	.
.	2E	[2c	.	2G	2g
=196	=196	=196	=196	=196	=196
1r	1F	2c]	1r	2c	1a
.	.	4B	.	2d	.
.	.	4A	.	.	.
2r	1E	2B	2r	1e	2g
2E	.	2G	2B	.	2e
=197	=197	=197	=197	=197	=197
2E	0r	2B	2e	0r	2g
2C	.	2c	2e	.	2g
2D	.	2A	2d	.	2f
2E	.	2G	2B	.	2e
=198	=198	=198	=198	=198	=198
1F	1r	2c	1A	1r	1a
.	.	2d	.	.	.
2E	2r	1e	2B	2r	2g
[2C	[2E	.	[2c	[2e	[2g
=199	=199	=199	=199	=199	=199
2C]	2E]	2r	2c]	2e]	2g]
2C	2C	1e	2c	2e	2g
2C	2.E	.	2.G	2g	2cc
2C	.	2e	.	2g	2cc
.	4F	.	4A	.	.
=200	=200	=200	=200	=200	=200
1GG	2G	2d	1B	2g	1b
.	1G	2d	.	2G	.
1D	.	1d	2r	1A	2.dd
.	2F#	.	2d	.	.
.	.	.	.	.	4cc
=201	=201	=201	=201	=201	=201
2GG	1G	2r	2d	2.B	4b
.	.	.	.	.	4a
1G	.	2.d	4G	.	1b
.	.	.	4A	4c	.
.	1D	.	4B	1d	.
.	.	4c	4c	.	.
2F	.	2A	[2d	.	[2a
=202	=202	=202	=202	=202	=202
1E	0r	2B	4d]	1G	2a]
.	.	.	4B	.	.
.	.	2G	2c	.	1g
1D	.	1A	1d	2r	.
.	.	.	.	2d	2f#
=203	=203	=203	=203	=203	=203
0GG	2r	1G	2.B	2d	2g
.	2G	.	.	2d	2g
.	.	.	4c	.	.
.	2G	1r	1d	1B	2g
.	2G	.	.	.	2g
=204	=204	=204	=204	=204	=204
0r	1A	0r	0r	1c	1e
.	2.D	.	.	2.A	1f
.	4E	.	.	4G	.
=205	=205	=205	=205	=205	=205
0r	2F	0r	0r	2A	1d
.	2.G	.	.	2.B	.
.	.	.	.	.	2.g
.	4F	.	.	8A	.
.	.	.	.	8B	.
.	2E	.	.	[2c	.
.	.	.	.	.	8f
.	.	.	.	.	8e
=206	=206	=206	=206	=206	=206
0r	2D	1r	0r	2c]	2f
.	2D	.	.	2B	2f
.	2.C	2r	.	[1c	[1e
.	.	2G	.	.	.
.	4D	.	.	.	.
=207	=207	=207	=207	=207	=207
1C	4E	2G	2r	0c]	0e]
.	4D	.	.	.	.
.	4E	2G	2c	.	.
.	4F	.	.	.	.
2C	1G	2E	2c	.	.
2C	.	2E	2c	.	.
=208	=208	=208	=208	=208	=208
2D	1r	1F	2A	0r	0r
2D	.	.	2A	.	.
2.GG	2r	2.D	[1B	.	.
.	[2G	.	.	.	.
4AA	.	4C	.	.	.
=209	=209	=209	=209	=209	=209
2BB	4G]	2D	2B]	0r	0r
.	4F	.	.	.	.
1C	4E	2.E	2G	.	.
.	4D	.	.	.	.
.	2C	.	2A	.	.
.	.	4F	.	.	.
2BB	2D	[2G	2B	.	.
=210	=210	=210	=210	=210	=210
2AA	2E	2G]	2.c	0r	0r
2AA	2C	2F#	.	.	.
.	.	.	8B	.	.
.	.	.	8A	.	.
[1GG	1D	1G	[1B	.	.
=211	=211	=211	=211	=211	=211
1GG]	1G	0r	1B]	1d	0g
1r	[1c	.	1r	1e	.
=212	=212	=212	=212	=212	=212
0r	2c]	1A	0r	1e	1.cc
.	2B	.	.	.	.
.	2A	[1c	.	1e	.
.	2G	.	.	.	2b
=213	=213	=213	=213	=213	=213
0r	2F	2c]	0r	1r	2a
.	4E	2c	.	.	2g
.	4D	.	.	.	.
.	2C	2c	.	1G	2e
.	2E	2c	.	.	2g
=214	=214	=214	=214	=214	=214
0r	1D	2d	0r	2A	1f
.	.	2d	.	2B	.
.	[1C	1e	.	2.c	2e
.	.	.	.	.	[2g
.	.	.	.	4d	.
=215	=215	=215	=215	=215	=215
0r	1C]	1c	1r	2e	4g]
.	.	.	.	.	4f
.	.	.	.	1c	2e
.	1r	1r	1G	.	1d
.	.	.	.	2B	.
=216	=216	=216	=216	=216	=216
1AA	0r	1r	1c	1A	[0e
1C	.	2r	2c	1G	.
.	.	2G	2B	.	.
=217	=217	=217	=217	=217	=217
2C	0r	1c	2A	0r	0e]
2C	.	.	2G	.	.
2C	.	2.c	2E	.	.
2C	.	.	2G	.	.
.	.	4B	.	.	.
=218	=218	=218	=218	=218	=218
2D	1r	1A	1F	1r	0r
2D	.	.	.	.	.
1E	2r	1G	1E	1B	.
.	2G	.	.	.	.
=219	=219	=219	=219	=219	=219
[0C	1c	2.E	1r	1e	0r
.	.	4F	.	.	.
.	2c	1G	1G	2e	.
.	2B	.	.	2e	.
=220	=220	=220	=220	=220	=220
0C]	2A	1E	1c	2e	2r
.	2G	.	.	2e	2g
.	2E	1r	2c	2e	1cc
.	2G	.	2c	2e	.
=221	=221	=221	=221	=221	=221
0r	0F	0r	2.c	0A	2cc
.	.	.	.	.	2b
.	.	.	4c	.	.
.	.	.	2d	.	1a
.	.	.	2d	.	.
=222	=222	=222	=222	=222	=222
2r	0E	2r	1e	2B	1g
1C	.	1c	.	1e	.
.	.	.	1c	.	2e
2C	.	2G	.	2e	2g
=223	=223	=223	=223	=223	=223
1D	0r	4B	0r	1d	1f
.	.	4A	.	.	.
.	.	1A	.	.	.
[1E	.	.	.	[1B	[1e
.	.	4G#	.	.	.
.	.	4F#	.	.	.
=224	=224	=224	=224	=224	=224
1E]	1r	1G#	0r	1B]	1e]
1r	[1A	1r	.	[1c	2r
.	.	.	.	.	[2e
=225	=225	=225	=225	=225	=225
0r	2A]	0r	0r	2c]	2e]
.	2A	.	.	2c	2f
.	1A	.	.	1c	2e
.	.	.	.	.	[2a
=226	=226	=226	=226	=226	=226
1r	1B	1r	1r	1d	4a]
.	.	.	.	.	8g#
.	.	.	.	.	8f#
.	.	.	.	.	2g#
[1AA	1A	2r	2r	2e	[1a
.	.	[2E	[2A	[2c	.
=227	=227	=227	=227	=227	=227
2AA]	0r	2E]	2A]	2c]	0a]
2AA	.	2F	2A	2c	.
1AA	.	2E	1A	1c	.
.	.	[2A	.	.	.
=228	=228	=228	=228	=228	=228
1BB	0r	4A]	1D	1d	0r
.	.	8G#	.	.	.
.	.	8F#	.	.	.
.	.	2G#	.	.	.
1AA	.	1A	1E	1c	.
!! resurrectionem
*Ibass	*Ibarit	*Itenor	*Itenor	*Icalto	*Icant
!Bassus	!Baritone	!Tenor 2	!Tenor 1	!Altus	!Cantus
*clefF4	*clefF4	*clefGv2	*clefGv2	*clefG2	*clefG2
*k[]	*k[]	*k[]	*k[]	*k[]	*k[]
*E:phr	*E:phr	*E:phr	*E:phr	*E:phr	*E:phr
*M3/2	*M3/2	*M3/2	*M3/2	*M3/2	*M3/2
=229	=229	=229	=229	=229	=229
1r	2.E	2.B	1r	2.e	2.g
.	4E	4B	.	4d	4g
2r	2E	2G	2r	2B	2g
=230	=230	=230	=230	=230	=230
1r	2D	2A	1r	2d	2f
.	1F	1A	.	2c	1a
2r	.	.	2r	2d	.
=231	=231	=231	=231	=231	=231
2r	1E	1B	2r	2e	2g
2.E	.	.	2.e	2.g	2.b
.	2r	2r	.	.	.
4E	.	.	4e	4g	4b
=232	=232	=232	=232	=232	=232
2G	1r	1r	2d	2g	2b
2D	.	.	2d	2f	2a
[2A	2r	2r	[2c	2e	[2cc
=233	=233	=233	=233	=233	=233
2A]	1r	1r	2c]	2f	2cc]
1G	.	.	1d	1g	1b
.	2r	2r	.	.	.
=234	=234	=234	=234	=234	=234
2.A	1r	1r	2c	2e	2.cc
.	.	.	1F	2c	.
4G	.	.	.	.	4b
2F	2r	2r	.	[2c	2a
=235	=235	=235	=235	=235	=235
2E	1r	1r	2G	2c]	2g
1D	.	.	1A	1d	1f
.	2r	2r	.	.	.
!! Et vitam
*Ibass	*Ibarit	*Itenor	*Itenor	*Icalto	*Icant
!Bassus	!Baritone	!Tenor 2	!Tenor 1	!Altus	!Cantus
*clefF4	*clefF4	*clefGv2	*clefGv2	*clefG2	*clefG2
*k[]	*k[]	*k[]	*k[]	*k[]	*k[]
*E:phr	*E:phr	*E:phr	*E:phr	*E:phr	*E:phr
*M4/2	*M4/2	*M4/2	*M4/2	*M4/2	*M4/2
=236	=236	=236	=236	=236	=236
1AA	2r	2r	1A	2c	2e
.	2A	2c	.	2e	2a
1r	1D	1d	1r	1f	1a
=237	=237	=237	=237	=237	=237
0r	2A	2c	1r	2e	2a
.	2F	2A	.	2d	2a
.	1E	1B	2r	1e	1g
.	.	.	2e	.	.
=238	=238	=238	=238	=238	=238
2r	0AA	1A	1e	0c	1a
2A	.	.	.	.	.
1A	.	1r	2e	.	2.cc
.	.	.	2e	.	.
.	.	.	.	.	4b
=239	=239	=239	=239	=239	=239
2A	0r	0r	1c	2.e	2a
2A	.	.	.	.	2.cc
.	.	.	.	4f	.
1G	.	.	1d	1g	.
.	.	.	.	.	8b
.	.	.	.	.	8a
.	.	.	.	.	2b
=240	=240	=240	=240	=240	=240
1A	0r	2r	2.c	1e	1cc
.	.	2e	.	.	.
.	.	.	4c	.	.
2.c	.	1e	1A	1r	2r
.	.	.	.	.	[2cc
4B	.	.	.	.	.
=241	=241	=241	=241	=241	=241
2A	0r	2e	2.c	0r	4cc]
.	.	.	.	.	4b
2.c	.	2e	.	.	2g
.	.	.	4B	.	.
.	.	1e	2A	.	2a
4B	.	.	.	.	.
2G	.	.	2E	.	[2b
=242	=242	=242	=242	=242	=242
1A	0r	0e	2.c	1r	4b]
.	.	.	.	.	4a
.	.	.	.	.	1a
.	.	.	8B	.	.
.	.	.	8A	.	.
1E	.	.	1B	2r	.
.	.	.	.	2e	2g#
=243	=243	=243	=243	=243	=243
0AA	2r	1c	2.A	1e	0a
.	2A	.	.	.	.
.	.	.	8G	.	.
.	.	.	8F	.	.
.	1A	2c	2E	2e	.
.	.	[2c	2C	2e	.
=244	=244	=244	=244	=244	=244
0r	2A	2c]	1F	1d	1r
.	2A	4B	.	.	.
.	.	4A	.	.	.
.	1G	1B	1E	1e	2.b
.	.	.	.	.	4b
=245	=245	=245	=245	=245	=245
0r	1A	1e	0r	2.c	2a
.	.	.	.	.	2.cc
.	.	.	.	4B	.
.	2.c	2.e	.	2A	.
.	.	.	.	.	4b
.	.	.	.	[2c	2g
.	4B	4d	.	.	.
=246	=246	=246	=246	=246	=246
0r	2A	2c	0r	4c]	2a
.	.	.	.	4d	.
.	2G	2B	.	1e	2b
.	1F	1A	.	.	2cc
.	.	.	.	2d	4b
.	.	.	.	.	4a
=247	=247	=247	=247	=247	=247
2r	[0E	2B	2r	[0e	2g#
2AA	.	2c	2A	.	2a
1AA	.	1c	1A	.	1cc
=248	=248	=248	=248	=248	=248
2AA	1E_	2c	2A	1e_	2a
2AA	.	2A	2.e	.	2cc
1GG#	1E_	2B	.	1e_	1b
.	.	.	8d	.	.
.	.	.	8c	.	.
.	.	[2E	2B	.	.
=249	=249	=249	=249	=249	=249
1AA	0E]	2E]	1.c	0e]	2.a
.	.	2A	.	.	.
.	.	.	.	.	8g
.	.	.	.	.	8f
2.C	.	2G	.	.	4e
.	.	.	.	.	4f
.	.	2E	2G	.	2g
4BB	.	.	.	.	.
=250	=250	=250	=250	=250	=250
2AA	[0E	2A	2r	[0e	2c
2.C	.	4G	2.G	.	2cc
.	.	4F	.	.	.
.	.	2E	.	.	2cc
4BB	.	.	4G	.	.
2GG	.	[2e	2G	.	2b
=251	=251	=251	=251	=251	=251
0AA	1E_	4e]	4c	1e_	0a
.	.	4d	4B	.	.
.	.	4c	4A	.	.
.	.	4B	4G#	.	.
.	1E_	1c	1A	1e_	.
=252	=252	=252	=252	=252	=252
0EE	0E]	0B	0G#	0e]	0b
==	==	==	==	==	==
*-	*-	*-	*-	*-	*-
!!!CDT: 1525/^1526/-1594/2/2
!!!OCY: Italia
!!!AGN: Mass (Parody)
!!!AST: renaissance, vocal
!!!ASW: Motet (Silva)
!!!PWK: Masses, Book 10
!!!RNB: Cadence finals: G,C,A
!!!YOR: Le Opere Complete, v. 27, p. 155
!!!YOO: Rome, Italy: Fratelli Scalera
!!!END: 1992//
!!!EED: John Miller
!!!YEC: Copyright 2000, John Miller
!!!YEN: United States of America
!!!YEM: Rights to all derivative electronic formats reserved.
!!!YEM: Refer to licensing agreement for further details.
!!!YEM: This file must be accompanied by the licensing agreement.
!!!YEM: A copy of the licensing agreement may be found at http://www.music-cog.ohio-state.edu/HumdrumDatabases/Palestrina/license.txt
!!!EMD: converted to Humdrum by Bret Aarden
